X: 29
T: Ravgal
B:[[Notböcker/Melodier til gamle danske Almuedanse for Violin solo]]
O:Danmark
Z:Søren Bak Vestergaard
M: 2/4
L: 1/8
K: G
B2 BG|c2 cA|dedc|dBGA|B2 BG|c2 cA|dedB|G2 z2:|\
|:B2 (.B.c)|A2 A2|GABc|dedc|B2 Bc|A2 dc|B2 A2|G2 z2:|

